X: 20281
T: WHAT WILL I DO GIN MY HOGGIE WAD DIE.
O: Old Scottish melody.
Q: "Slow."
%R: air, march
B: W. Hamilton "Universal Tune-Book" Vol. 2 Glasgow 1846 p.28 #1
S: http://s3-eu-west-1.amazonaws.com/itma.dl.printmaterial/book_pdfs/hamiltonvol2web.pdf
Z: 2016 John Chambers <jc:trillian.mit.edu>
M: C
L: 1/8
K: E
%%slurgraces yes
%%graceslurs yes
% - - - - - - - - - - - - - - - - - - - - - - - - -
(EF) |\
G2B2 B2(ef) | g2g2 f2(ef) | g2g2 f2(ef/g/) | f4 F2(EF) |\
G2B2 B2(ef) | g2g2 f2(ef) | (gf)(ec) (ec)(BG) | {G2}F4 E2 |]
(EF) |\
G2B2 B2(GB) | (cB)(GB) (cB)(GB) | (cB)(GB) (cB)(GB) | _d4 F2(BA) |\
G2(FE) B2B2 | c2(cd/e/) {e}d2(cB) | (cd)(ef) (ga)(gf) | e4E2 |]
(EF) |\
G2B2 B2(ef) | g2g2 f2(ef/g/) | a3b (c'b)(ag) | {g2}f4 F2(EF) |\
G2B2 B2(ef) | g2g2 f2(ef) | (gf)(ed) (ec)(BG) | F4 E2 |]
(EF) |\
G2B2 B2e2 | c3e B3e | c2(de) B2(ag) | {g2}f4 F2EF |\
G2B2 B2(GB) | c3e B3e | A3f G2(eG) | {G2}F4 E2 |]
% - - - - - - - - - - - - - - - - - - - - - - - - -

%%sep 1 1 500
%%sep 1 1 500

